_includes/icons/edit.svg

<svg xmlns="http://www.w3.org/2000/svg" width="24" height="24" viewBox="0 0 24 24">
  <path d="M 18.414062 2 C 18.158188 2 17.902031 2.0974687 17.707031 2.2929688 L 16 4 L 20 8 L 21.707031 6.2929688 C 22.098031 5.9019687 22.098031 5.2689063 21.707031 4.8789062 L 19.121094 2.2929688 C 18.925594 2.0974687 18.669937 2 18.414062 2 z M 14.5 5.5 L 3 17 L 3 21 L 7 21 L 18.5 9.5 L 14.5 5.5 z"></path>
</svg>

<svg xmlns="http://www.w3.org/2000/svg" width="24" height="24">
  <path d="M18.414 2a.995.995 0 0 0-.707.293L16 4l4 4 1.707-1.707a.999.999 0 0 0 0-1.414l-2.586-2.586A.996.996 0 0 0 18.414 2zM14.5 5.5 3 17v4h4L18.5 9.5l-4-4z"/>
</svg>
